X:1
T:Title
%%score { 1 | ( 2 3 ) }
L:1/8
Q:1/4=100
M:4/4
K:D
V:1 treble nm="Grand Piano"
V:2 bass 
V:3 bass 
V:1
 D2 F2 [FA]2 [Ad]2 | [Gc]2 [=FB]2 [EA]4 | F2 G2 A2 [DB]2 | [A,CE]6 z2 | %4
w: Mrs.~S.~Cooper * * *||||
 [G,B,G]2 [G,B,E]2 [G,C]2 [DB]2 | [EA]2 [A,CG]2 [A,DF]4 | %6
w: ||
 [G,B,E]2 [^A,DG]2 [=A,DF]2[K:bass] .[G,B,E]2 | [F,D]8 |] %8
w: ||
V:2
 [D,F,]2 [D,A,D]2 [D,D]2 [F,D]2 | [E,A,]2 [D,^G,]2 [C,A,]4 | [D,A,D]2 [E,A,D]2 [F,A,D]2 [B,,^G,]2 | %3
 A,,6 z2 | E,2 G,,2 A,,2 [B,,G,]2 | [C,E,]2 A,,2 D,4 | G,,2 G,,2 A,,2 z C | D,8 |] %8
V:3
 x8 | x8 | x8 | x8 | x8 | x8 | z4 z2 A,,2 | x8 |] %8

